X: 21023
M: 3/8
L: 1/8
K: G
V: 1 staves=2
|:\
(GBd) | g2f | {f}e2d | {f}e2d |\
(def) | (gab) | {b}c'2b | {b}a2F |\
gbd' | (^c'=c'b) | {b}agf | "Fine."g2z H:|
b2b | afd | (ef).g | g2f |\
(dfa) | (d'^c')b | (ag)f | {f}e2a |\
b2b | (af).d | (ef)g | Tg2f |\
(ad').^c' | (ba).g | (fg)e | Hd3 |\
"_ad lib."d(e^c | B)c"^D.C."A |]
V: 2
|:\
z3 | GBd | G2B | {d}c2B |\
{d}c2B |\
(F/A/)df | (fe)g |
(fe)d | {d}^c2F |\
(fb).a | (gf).e | (de)G | HF3 |\
z3 | z2"^D.C."z |]



